Carto/POI/SVG/emergency-hospital-jpn_solid_24px.svg

<svg xmlns="http://www.w3.org/2000/svg" width="24" height="24" viewBox="0 0 24 24"><rect width="24" height="24" style="fill:none"/><path d="M17,12H13v4H11V12H7V10h4V6h2v4h4Zm2-8H5V15.82l7,3.89,7-3.89V4m2-2V17l-9,5L3,17V2Z"/></svg>

<svg width="24" height="24" viewBox="0 0 24 24" fill="none" xmlns="http://www.w3.org/2000/svg">
<path d="M17 12H13V16H11V12H7V10H11V6H13V10H17V12ZM19 4H5V15.82L12 19.71L19 15.82V4ZM21 2V17L12 22L3 17V2H21Z" fill="#0F1621"/>
</svg>
